svgs/thin/signal-slash.svg

<svg xmlns="http://www.w3.org/2000/svg" viewBox="0 0 640 512"><!-- Font Awesome Pro 6.0.0-alpha2 by @fontawesome - https://fontawesome.com License - https://fontawesome.com/license (Commercial License) --><path d="M63.999 384C59.593 384 55.999 387.594 55.999 392V504C55.999 508.406 59.593 512 63.999 512S71.999 508.406 71.999 504V392C71.999 387.594 68.406 384 63.999 384ZM455.999 104C455.999 99.594 452.406 96 447.999 96S439.999 99.594 439.999 104V259.4L455.999 272.119V104ZM583.999 8C583.999 3.594 580.406 0 575.999 0S567.999 3.594 567.999 8V361.145L583.999 373.863V8ZM311.999 504C311.999 508.406 315.593 512 319.999 512S327.999 508.406 327.999 504V354.34L311.999 341.621V504ZM191.999 288C187.593 288 183.999 291.594 183.999 296V504C183.999 508.406 187.593 512 191.999 512S199.999 508.406 199.999 504V296C199.999 291.594 196.406 288 191.999 288ZM636.982 497.734L12.99 1.73C11.527 0.566 9.773 0 8.027 0H8.025C5.673 0 3.335 1.029 1.738 3.012C-1.012 6.48 -0.434 11.512 3.019 14.262L627.011 510.266C628.497 511.438 630.247 512 631.997 512C634.341 512 636.685 510.969 638.263 508.984C641.013 505.516 640.435 500.484 636.982 497.734ZM439.999 504C439.999 508.406 443.593 512 447.999 512S455.999 508.406 455.999 504V456.084L439.999 443.367V504Z"/></svg>

<svg xmlns="http://www.w3.org/2000/svg" viewBox="0 0 640 512"><!--! Font Awesome Pro 6.4.0 by @fontawesome - https://fontawesome.com License - https://fontawesome.com/license (Commercial License) Copyright 2023 Fonticons, Inc. --><path d="M584 8c0-4.4-3.6-8-8-8s-8 3.6-8 8V360.1l16 12.6V8zM440 504c0 4.4 3.6 8 8 8s8-3.6 8-8V455.1l-16-12.6V504zm16-400c0-4.4-3.6-8-8-8s-8 3.6-8 8V259l16 12.6V104zM312 341.4V504c0 4.4 3.6 8 8 8s8-3.6 8-8V354l-16-12.6zM192 288c-4.4 0-8 3.6-8 8V504c0 4.4 3.6 8 8 8s8-3.6 8-8V296c0-4.4-3.6-8-8-8zM64 384c-4.4 0-8 3.6-8 8V504c0 4.4 3.6 8 8 8s8-3.6 8-8V392c0-4.4-3.6-8-8-8zM13 1.7C9.5-1 4.5-.4 1.7 3S-.4 11.5 3 14.3l624 496c3.5 2.7 8.5 2.2 11.2-1.3s2.2-8.5-1.3-11.2L13 1.7z"/></svg>
